dist/assets/img/logo-guj.svg

<?xml version="1.0" encoding="UTF-8" standalone="no"?>
<svg width="65px" height="28px" viewBox="0 0 65 28" version="1.1" xmlns="http://www.w3.org/2000/svg" xmlns:xlink="http://www.w3.org/1999/xlink" xmlns:sketch="http://www.bohemiancoding.com/sketch/ns">
    <!-- Generator: sketchtool 3.4.4 (395) - http://www.bohemiancoding.com/sketch -->
    <title>GUJ Logo</title>
    <desc>Created with sketchtool.</desc>
    <defs></defs>
    <g id="Page-1" stroke="none" stroke-width="1" fill="none" fill-rule="evenodd" sketch:type="MSPage">
        <g id="Desktop-HD" sketch:type="MSArtboardGroup" transform="translate(-1245.000000, -4851.000000)">
            <g id="Group" sketch:type="MSLayerGroup" transform="translate(0.000000, 4840.000000)">
                <g id="GUJ-Logo" transform="translate(1245.000000, 11.000000)" sketch:type="MSShapeGroup">
                    <path d="M33.3405825,8.46552144 C33.7480947,8.04184942 34.3368811,7.82977583 35.1066262,7.83040936 C35.589551,7.83072612 35.9781311,7.89930556 36.272682,8.0358309 C36.5669175,8.17251462 36.8005704,8.34721004 36.9741141,8.55944201 C37.1470267,8.77167398 37.2677184,9.01051413 37.3354005,9.27548733 C37.4033981,9.54077729 37.4445752,9.80955166 37.4597209,10.0822856 C37.4742354,10.4308845 37.6249029,10.6733674 37.9118811,10.8100512 C38.1980704,10.9467349 38.5377427,11.0151559 38.9305825,11.0154727 C39.4133495,11.0159479 39.7795267,10.9253533 40.0287985,10.7433723 C40.2775971,10.5618665 40.4027063,10.1833333 40.4031796,9.60745614 C40.4036529,8.92530458 40.2681311,8.31569201 39.9969296,7.77750975 C39.7257282,7.23964425 39.3485073,6.78065302 38.8657403,6.40148635 C38.3831311,6.02247807 37.8134345,5.73406433 37.1572816,5.53656189 C36.5008131,5.33905945 35.7801335,5.23991228 34.9955583,5.23927875 C34.2709345,5.23880361 33.5953762,5.33304094 32.9687257,5.52183236 C32.3425485,5.71078216 31.7913107,6.00964912 31.3156432,6.41843324 C30.8396602,6.82721735 30.466068,7.36080653 30.1936044,8.01999269 C29.9214563,8.67854532 29.7851456,9.48550195 29.7843568,10.4400707 L29.7797816,16.7812135 C29.7789927,17.7354654 29.914199,18.5422636 30.1852427,19.2016082 C30.4567597,19.8611111 30.8295631,20.3954922 31.304915,20.8049098 C31.7799515,21.2140107 32.3378155,21.5143031 32.9796117,21.7037281 C33.6206189,21.8936282 34.3184223,21.9889742 35.0731796,21.9894493 C35.8127913,21.9900828 36.5074393,21.8960039 37.1564927,21.7070541 C37.8053883,21.5185794 38.3717718,21.2192373 38.8550121,20.81077 C39.3382524,20.4019859 39.7164199,19.8682383 39.988568,19.2092105 C40.2605583,18.5503411 40.3971845,17.7437013 40.3979733,16.7894493 L40.4000243,14.0849172 C40.400182,13.8272295 40.320983,13.6037524 40.1627427,13.4140107 C40.0043447,13.2245858 39.7738471,13.1295565 39.4723544,13.1293981 L35.6234709,13.1263889 C35.3216626,13.1262305 35.0946359,13.2475512 34.9441262,13.489559 C34.7928277,13.7317251 34.7172573,13.9973319 34.7172573,14.2849537 C34.7169417,14.5882554 34.7921966,14.8568713 34.9430218,15.0917519 C35.093216,15.3269493 35.320085,15.4444688 35.6218932,15.4446272 L37.4559345,15.4460526 L37.4549879,16.787232 C37.454199,17.6814571 37.2420024,18.3404849 36.8195024,18.7638402 C36.3962136,19.1879873 35.815,19.3994274 35.0753883,19.3989522 C34.3207888,19.3983187 33.7398908,19.1859284 33.3330097,18.761306 C32.9256553,18.3371589 32.7226092,17.6778143 32.7233981,16.7837476 L32.7279733,10.4426048 C32.7286044,9.54869639 32.9325971,8.88951023 33.3405825,8.46552144" id="Fill-1" fill="#35495E"></path>
                    <path d="M52.2902913,5.46069688 C51.9809102,5.31672758 51.6453398,5.2441886 51.2831068,5.24387183 C50.9054126,5.24355507 50.5660558,5.31561891 50.2642476,5.45911306 C49.9618083,5.60324074 49.810983,5.83368665 49.8106675,6.1520346 L49.8027791,16.7889742 C49.8019903,17.6831993 49.5825364,18.3420687 49.1448908,18.7655824 C48.7067718,19.1897295 48.0951092,19.4011696 47.310534,19.4005361 C46.5254854,19.3999025 45.9142961,19.1875122 45.4772816,18.7628899 C45.0396359,18.3385843 44.8214442,17.6793981 44.822233,16.7853314 L44.8301214,6.14823343 C44.8304369,5.83004386 44.6756675,5.59928119 44.3664442,5.45467836 C44.0573786,5.31070906 43.7214927,5.23817008 43.3591019,5.23785331 C42.9818811,5.23769493 42.642051,5.30960039 42.3405583,5.45325292 C42.0382767,5.59722222 41.8872937,5.82766813 41.8869782,6.1458577 L41.8790898,16.7829557 C41.878301,17.7372076 42.0169782,18.5441642 42.296068,19.2033504 C42.575,19.8630117 42.9591626,20.3973928 43.4495024,20.8068104 C43.9395267,21.2159113 44.5133252,21.5160453 45.1694782,21.7056287 C45.8257888,21.8955288 46.5387379,21.9908748 47.3087985,21.9915083 C48.0632403,21.9921418 48.7727184,21.8979045 49.4369175,21.7089547 C50.1011165,21.52048 50.6788592,21.2211379 51.1695146,20.8128289 C51.6601699,20.4040448 52.0455947,19.8702973 52.3253155,19.2111111 C52.6048786,18.5524001 52.7452913,17.7454435 52.7459223,16.7913499 L52.7539684,6.15441033 C52.754284,5.835904 52.5996723,5.60529971 52.2902913,5.46069688" id="Fill-3" fill="#35495E"></path>
                    <path d="M64.3924393,5.44533382 C64.083216,5.3015229 63.7474879,5.22898392 63.3854126,5.22866715 C63.0077184,5.22850877 62.6680461,5.30041423 62.3665534,5.44375 C62.0641141,5.58787768 61.9134466,5.81848197 61.9131311,6.13667154 L61.9120267,7.59061891 L61.9113956,7.59061891 L61.905085,16.7973684 C61.9044539,17.6917519 61.6962015,18.3506213 61.2809587,18.7742934 C60.8655583,19.1984405 60.2729854,19.4098806 59.5030825,19.4092471 C59.050449,19.4089303 58.6730704,19.3368665 58.3712621,19.1927388 C58.0691383,19.0484527 57.831699,18.8588694 57.6586286,18.6235136 C57.485085,18.3889498 57.3647087,18.1273026 57.2968689,17.8395224 C57.2293447,17.5517422 57.1878519,17.2634868 57.1730218,16.975865 C57.1428883,16.6120614 56.98875,16.3657773 56.7095024,16.2366959 C56.4300971,16.1079313 56.0946845,16.043153 55.702318,16.0428363 C55.2040898,16.0423611 54.834284,16.1369152 54.5929005,16.325865 C54.3508859,16.5154483 54.2300364,16.897941 54.2295631,17.4735015 C54.2290898,18.185904 54.3642961,18.8183236 54.6358131,19.3713938 C54.9068568,19.9250975 55.2801335,20.3985015 55.7551699,20.7928728 C56.2302063,21.1874025 56.7995874,21.4865863 57.4637864,21.6918494 C58.1276699,21.8971126 58.8519782,21.9997442 59.6370267,22.0003777 C60.3461893,22.0008528 61.0178034,21.9064571 61.6518689,21.7178241 C62.2860922,21.5290327 62.8409587,21.2300073 63.316784,20.8212232 C63.7926092,20.4125975 64.1663592,19.8788499 64.4385073,19.2198221 C64.7106553,18.5609527 64.8474393,17.7543129 64.8480704,16.7997442 L64.8532767,9.95621345 L64.8550121,7.59299464 L64.8561165,6.13904727 C64.8567476,5.82101608 64.7018204,5.59009503 64.3924393,5.44533382" id="Fill-5" fill="#35495E"></path>
                    <path d="M13.4163471,0.146028265 C20.8260316,0.146028265 26.8326942,6.17610867 26.8326942,13.6146808 C26.8326942,21.0532529 20.8260316,27.0833333 13.4163471,27.0833333 C6.00666262,27.0833333 0,21.0532529 0,13.6146808 C0,6.17610867 6.00666262,0.146028265 13.4163471,0.146028265" id="Fill-8" fill="#35495E"></path>
                    <path d="M10.9618083,6.84321394 C10.9618083,6.84321394 10.7742233,6.99668616 10.7739078,7.38614766 C10.7735922,7.77560916 10.9614927,7.92908138 10.9614927,7.92908138 C10.9614927,7.92908138 11.0949636,8.0526194 11.1771602,8.28338207 C11.2853883,8.58636696 11.2505218,8.93496589 11.073665,9.3190424 C10.4181432,10.7417885 11.0900728,11.643616 11.5368689,11.9217349 C11.6310558,11.9804946 11.7356553,12.0085283 11.8389927,12.0086866 C12.031784,12.008845 12.22,11.9117568 12.3288592,11.7351608 C12.4964078,11.4640107 12.4131068,11.1081262 12.1430097,10.9399245 C12.1389078,10.937232 11.727767,10.6510356 12.1180825,9.80400828 C12.6070024,8.74284844 12.3422694,7.88505117 12.0025971,7.38678119 C12.3427427,6.88866959 12.6081068,6.03166423 12.1212379,4.970346 C11.7323422,4.12268519 12.1436408,3.83712232 12.1479005,3.83442982 C12.4184709,3.66701998 12.5020874,3.3109771 12.3351699,3.03951023 C12.2264684,2.86291423 12.0382524,2.76550926 11.8454612,2.76535088 C11.7421238,2.7651925 11.6373665,2.79322612 11.5431796,2.85151072 C11.0957524,3.1289961 10.4224029,4.02987329 11.0760316,5.45356969 C11.2522573,5.83796296 11.2868083,6.18640351 11.1781068,6.4893884 C11.0952791,6.71999269 10.9618083,6.84321394 10.9618083,6.84321394" id="Fill-10" fill="#3B97D3"></path>
                    <path d="M14.6840049,10.941825 C14.4135922,11.1095517 14.3299757,11.4652778 14.4968932,11.7367446 C14.6054369,11.913499 14.7938107,12.010904 14.9866019,12.010904 C15.0899393,12.0110624 15.1945388,11.9831871 15.2888835,11.9247442 C15.7361529,11.6472588 16.4095024,10.74654 15.7560316,9.32268519 C15.5796481,8.93829191 15.5452549,8.58969298 15.6539563,8.28686647 C15.7366262,8.05626218 15.8700971,7.93304094 15.8700971,7.93304094 C15.8700971,7.93304094 16.0584709,7.7797271 16.0587864,7.39026559 C16.0591019,7.00096248 15.8713592,6.84733187 15.8713592,6.84733187 C15.8713592,6.84733187 15.7378883,6.72379386 15.6556917,6.49303119 C15.5474636,6.18988791 15.5824879,5.84144737 15.7593447,5.45737086 C16.4148665,4.03478314 15.7430947,3.13279727 15.2961408,2.85467836 C15.2017961,2.796077 15.0971966,2.76804337 14.9938592,2.76804337 C14.8012257,2.76788499 14.6130097,2.8649732 14.5039927,3.04141082 C14.3364442,3.31240253 14.4197451,3.6686038 14.6898422,3.83664717 C14.6941019,3.83933967 15.105085,4.12553606 14.7147694,4.97256335 C14.226165,6.03324805 14.4904248,6.89057018 14.8297816,7.38915692 C14.4894782,7.88711014 14.2233252,8.74443226 14.7106675,9.80622563 C15.0998786,10.6535697 14.6882646,10.9389742 14.6840049,10.941825" id="Fill-12" fill="#3B97D3"></path>
                    <path d="M5.08688107,17.089425 C4.64308252,17.0891082 4.28337379,16.7276803 4.28368932,16.2818348 C4.28400485,15.836306 4.64418689,15.4751949 5.0881432,15.4755117 L5.56964806,15.4759868 L5.56964806,15.5507432 L5.5723301,15.5507432 C5.57911408,16.078789 5.64458738,16.5936891 5.76165049,17.0900585 L5.08688107,17.089425 Z M8.40487864,13.6172149 L5.57091019,13.6151559 L5.10817961,13.6146808 C3.6261165,13.6135721 2.42377427,14.819018 2.4226699,16.3068592 C2.42156553,17.7947003 3.6223301,19.00173 5.10423544,19.0026803 L6.51798544,19.003789 C7.84354369,21.3228192 10.427767,22.9066399 13.4092476,22.9384747 C17.7147087,22.8988791 21.1980461,19.6221126 21.2573665,15.5626218 L21.2600485,15.5626218 L21.2616262,13.6267178 L13.4161893,13.6211745 L8.40487864,13.6172149 Z" id="Fill-14" fill="#FFFFFF"></path>
                </g>
            </g>
        </g>
    </g>
</svg>

<svg width="65" height="28" viewBox="0 0 65 28" xmlns="http://www.w3.org/2000/svg"><title>GUJ Logo</title><g id="Page-1" fill="none" fill-rule="evenodd"><g id="Desktop-HD" transform="translate(-1245 -4851)"><g id="Group" transform="translate(0 4840)"><g id="GUJ-Logo" transform="translate(1245 11)"><path d="M33.34 8.466c.408-.424.997-.636 1.767-.636.483 0 .871.07 1.166.206.294.137.528.311.701.523.173.213.294.452.361.716.068.266.11.535.125.807.014.349.165.591.452.728.286.137.626.205 1.019.205.482 0 .849-.09 1.098-.272.249-.181.374-.56.374-1.136 0-.682-.135-1.291-.406-1.83a4.053 4.053 0 0 0-1.131-1.376 5.127 5.127 0 0 0-1.709-.864 7.5 7.5 0 0 0-2.161-.298c-.725 0-1.4.094-2.027.283a4.498 4.498 0 0 0-1.653.896c-.476.41-.85.943-1.122 1.602-.273.659-.409 1.466-.41 2.42l-.004 6.341c-.001.954.134 1.761.405 2.42.272.66.645 1.194 1.12 1.604a4.47 4.47 0 0 0 1.675.899 7.36 7.36 0 0 0 2.093.285 7.4 7.4 0 0 0 2.083-.282 4.572 4.572 0 0 0 1.699-.896c.483-.409.861-.943 1.134-1.602.272-.659.408-1.465.409-2.42l.002-2.704c0-.258-.079-.481-.237-.671-.159-.19-.39-.284-.69-.285l-3.85-.003c-.301 0-.528.122-.679.364a1.473 1.473 0 0 0-.227.795c0 .303.075.572.226.807.15.235.377.352.679.353l1.834.001-.001 1.341c0 .894-.213 1.553-.635 1.977-.424.424-1.005.635-1.745.635-.754 0-1.335-.213-1.742-.638-.407-.424-.61-1.083-.61-1.977l.005-6.341c0-.894.205-1.553.613-1.977" id="Fill-1" fill="#35495E"/><path d="M52.29 5.46a2.362 2.362 0 0 0-1.007-.216c-.378 0-.717.072-1.019.215-.302.144-.453.375-.453.693l-.008 10.637c-.001.894-.22 1.553-.658 1.977-.438.424-1.05.635-1.834.635-.786-.001-1.397-.213-1.834-.638-.437-.424-.656-1.084-.655-1.978l.008-10.637c0-.318-.154-.549-.464-.693a2.362 2.362 0 0 0-1.007-.217c-.377 0-.717.072-1.018.215-.303.144-.454.375-.454.693l-.008 10.637c0 .954.138 1.761.417 2.42.279.66.663 1.194 1.154 1.604.49.409 1.063.709 1.72.899.656.19 1.369.285 2.139.286.754 0 1.464-.094 2.128-.283a4.662 4.662 0 0 0 1.733-.896c.49-.409.876-.943 1.155-1.602.28-.659.42-1.466.42-2.42l.009-10.637c0-.318-.154-.549-.464-.693" id="Fill-3" fill="#35495E"/><path d="M64.392 5.445a2.364 2.364 0 0 0-1.007-.216c-.377 0-.717.071-1.018.215-.303.144-.454.374-.454.693l-.001 1.454-.007 9.206c0 .895-.209 1.554-.624 1.977-.415.424-1.008.636-1.778.635-.453 0-.83-.072-1.132-.216a1.854 1.854 0 0 1-.712-.57 2.123 2.123 0 0 1-.362-.783 4.876 4.876 0 0 1-.124-.864c-.03-.364-.184-.61-.463-.74-.28-.128-.615-.193-1.008-.193-.498 0-.868.094-1.11.283-.241.19-.362.572-.362 1.148 0 .712.134 1.344.406 1.897a4.264 4.264 0 0 0 1.12 1.422 4.905 4.905 0 0 0 1.708.899 7.347 7.347 0 0 0 2.173.308c.71 0 1.38-.094 2.015-.282a4.484 4.484 0 0 0 1.665-.897c.476-.408.85-.942 1.122-1.601.272-.659.408-1.466.41-2.42l.004-6.844.002-2.363.001-1.454c0-.318-.154-.549-.464-.694" id="Fill-5" fill="#35495E"/><path d="M13.416.146c7.41 0 13.417 6.03 13.417 13.469 0 7.438-6.007 13.468-13.417 13.468S0 21.053 0 13.615C0 6.176 6.007.146 13.416.146" id="Fill-8" fill="#35495E"/><path d="M10.962 6.843s-.188.154-.188.543c0 .39.187.543.187.543s.134.124.216.354c.108.303.074.652-.103 1.036-.656 1.423.016 2.325.463 2.603a.57.57 0 0 0 .792-.187.579.579 0 0 0-.186-.795c-.004-.003-.415-.289-.025-1.136.489-1.061.224-1.919-.115-2.417.34-.498.605-1.355.118-2.417-.389-.847.023-1.133.027-1.136a.579.579 0 0 0-.303-1.069.572.572 0 0 0-.302.087c-.447.277-1.12 1.178-.467 2.602.176.384.21.732.102 1.035a.952.952 0 0 1-.216.354" id="Fill-10" fill="#3B97D3"/><path d="M14.684 10.942a.579.579 0 0 0 .303 1.069.57.57 0 0 0 .302-.086c.447-.278 1.12-1.178.467-2.602-.176-.385-.21-.733-.102-1.036a.95.95 0 0 1 .216-.354s.188-.153.189-.543c0-.389-.188-.543-.188-.543s-.133-.123-.215-.354c-.109-.303-.074-.652.103-1.036.656-1.422-.016-2.324-.463-2.602a.571.571 0 0 0-.792.186.579.579 0 0 0 .186.796c.004.002.415.289.025 1.136-.489 1.06-.225 1.918.115 2.416-.34.498-.607 1.355-.12 2.417.39.848-.022 1.133-.026 1.136" id="Fill-12" fill="#3B97D3"/><path d="M5.087 17.09a.805.805 0 0 1-.803-.808c0-.446.36-.807.804-.806h.482v.075h.002c.007.528.073 1.043.19 1.54l-.675-.002zm3.318-3.473l-2.834-.002h-.463a2.689 2.689 0 0 0-2.685 2.692 2.689 2.689 0 0 0 2.681 2.696h1.414c1.326 2.32 3.91 3.904 6.891 3.935 4.306-.04 7.789-3.316 7.848-7.375h.003l.002-1.936-7.846-.006-5.011-.004z" id="Fill-14" fill="#FFF"/></g></g></g></g></svg>
